X:1
T:Blow The Winds, I-O
M:4/4
L:1/4
K:F
 c| A d d c| e- d d A| c3/2 d/2 A F| G3|F/2-G/2| A d d c/2c/2| e d d A|\
 c A G E| c3|B/2-G/2| F D D E| G- A- B G| F D D E| F2 z2| A d d c|\
 e d d B| c A G E| D3||
